images/youtube-wh.svg

<svg width="18" height="12" viewBox="0 0 18 12" fill="none" xmlns="http://www.w3.org/2000/svg">
<path d="M16.9559 1.92496C16.7614 1.20203 16.1914 0.632149 15.4686 0.437485C14.1481 0.0761719 8.86588 0.0761719 8.86588 0.0761719C8.86588 0.0761719 3.5839 0.0761719 2.26337 0.423786C1.55445 0.618244 0.970558 1.20213 0.7761 1.92496C0.428589 3.24538 0.428589 5.98376 0.428589 5.98376C0.428589 5.98376 0.428589 8.73594 0.7761 10.0426C0.970764 10.7654 1.54054 11.3353 2.26348 11.5299C3.5978 11.8913 8.86609 11.8913 8.86609 11.8913C8.86609 11.8913 14.1481 11.8913 15.4686 11.5437C16.1915 11.3492 16.7614 10.7793 16.9561 10.0565C17.3035 8.73594 17.3035 5.99766 17.3035 5.99766C17.3035 5.99766 17.3174 3.24538 16.9559 1.92496ZM7.18415 8.51357V3.45395L11.5766 5.98376L7.18415 8.51357Z" fill="white"/>
</svg>

<svg xmlns="http://www.w3.org/2000/svg" width="18" height="12" fill="none" xmlns:v="https://vecta.io/nano"><path d="M16.956 1.925C16.76 1.202 16.19.632 15.47.437c-1.32-.36-6.603-.36-6.603-.36s-5.282.0-6.603.348c-.71.194-1.293.778-1.487 1.5C.43 3.245.43 5.984.43 5.984s0 2.752.348 4.06c.195.723.764 1.293 1.487 1.487 1.334.36 6.603.36 6.603.36s5.282.0 6.603-.348c.723-.194 1.293-.764 1.487-1.487.347-1.32.347-4.06.347-4.06s.014-2.752-.348-4.073zm-9.772 6.59v-5.06l4.392 2.53-4.392 2.53z" fill="#fff"/></svg>
